assets/img/braze_icons/calculator.svg

<svg fill="none" height="24" viewBox="0 0 24 24" width="24" xmlns="http://www.w3.org/2000/svg"><path clip-rule="evenodd" d="m7.7587 2h8.4826c.805-.00001 1.4693-.00002 2.0105.0442.5621.04592 1.0788.14448 1.5642.39178.7526.38349 1.3645.99541 1.748 1.74806.2473.48534.3459 1.00204.3918 1.56414.0442.54119.0442 1.20554.0442 2.0105v8.48262c0 .805 0 1.4693-.0442 2.0105-.0459.5621-.1445 1.0788-.3918 1.5642-.3835.7526-.9954 1.3645-1.748 1.748-.4854.2473-1.0021.3459-1.5642.3918-.5412.0442-1.2055.0442-2.0105.0442h-8.48262c-.80496 0-1.46931 0-2.0105-.0442-.5621-.0459-1.0788-.1445-1.56414-.3918-.75265-.3835-1.36457-.9954-1.74806-1.748-.2473-.4854-.34586-1.0021-.39178-1.5642-.04422-.5412-.04421-1.2055-.0442-2.0105v-8.48261c-.00001-.80496-.00002-1.46933.0442-2.01051.04592-.5621.14448-1.0788.39178-1.56414.38349-.75265.99541-1.36457 1.74806-1.74806.48534-.2473 1.00204-.34586 1.56414-.39178.54118-.04422 1.20557-.04421 2.01052-.0442zm-.55159 16.2071 10.99999-10.99999c.3905-.39053.3905-1.02369 0-1.41422-.3905-.39052-1.0237-.39052-1.4142 0l-11.00001 11.00001c-.39052.3905-.39052 1.0237 0 1.4142.39053.3905 1.02369.3905 1.41422 0zm2.29289-11.7071c0-.55228-.44771-1-1-1-.55228 0-1 .44772-1 1v1h-1c-.55228 0-1 .44772-1 1 0 .55229.44772 1 1 1h1v1c0 .5523.44772 1 1 1 .55229 0 1-.4477 1-1v-1h1c.5523 0 1-.44771 1-1 0-.55228-.4477-1-1-1h-1zm3 9c0-.5523.4477-1 1-1h4c.5523 0 1 .4477 1 1s-.4477 1-1 1h-4c-.5523 0-1-.4477-1-1z" fill="#801ed7" fill-rule="evenodd"/></svg>

<svg width="24" height="24" viewBox="0 0 24 24" fill="none" xmlns="http://www.w3.org/2000/svg">
<path fill-rule="evenodd" clip-rule="evenodd" d="M7.7587 2H16.2413C17.0463 1.99999 17.7106 1.99998 18.2518 2.0442C18.8139 2.09012 19.3306 2.18868 19.816 2.43598C20.5686 2.81947 21.1805 3.43139 21.564 4.18404C21.8113 4.66938 21.9099 5.18608 21.9558 5.74818C22 6.28937 22 6.95372 22 7.75868V16.2413C22 17.0463 22 17.7106 21.9558 18.2518C21.9099 18.8139 21.8113 19.3306 21.564 19.816C21.1805 20.5686 20.5686 21.1805 19.816 21.564C19.3306 21.8113 18.8139 21.9099 18.2518 21.9558C17.7106 22 17.0463 22 16.2413 22H7.75868C6.95372 22 6.28937 22 5.74818 21.9558C5.18608 21.9099 4.66938 21.8113 4.18404 21.564C3.43139 21.1805 2.81947 20.5686 2.43598 19.816C2.18868 19.3306 2.09012 18.8139 2.0442 18.2518C1.99998 17.7106 1.99999 17.0463 2 16.2413V7.75869C1.99999 6.95373 1.99998 6.28936 2.0442 5.74818C2.09012 5.18608 2.18868 4.66938 2.43598 4.18404C2.81947 3.43139 3.43139 2.81947 4.18404 2.43598C4.66938 2.18868 5.18608 2.09012 5.74818 2.0442C6.28936 1.99998 6.95375 1.99999 7.7587 2ZM7.20711 18.2071L18.2071 7.20711C18.5976 6.81658 18.5976 6.18342 18.2071 5.79289C17.8166 5.40237 17.1834 5.40237 16.7929 5.79289L5.79289 16.7929C5.40237 17.1834 5.40237 17.8166 5.79289 18.2071C6.18342 18.5976 6.81658 18.5976 7.20711 18.2071ZM9.5 6.5C9.5 5.94772 9.05229 5.5 8.5 5.5C7.94772 5.5 7.5 5.94772 7.5 6.5V7.5H6.5C5.94772 7.5 5.5 7.94772 5.5 8.5C5.5 9.05229 5.94772 9.5 6.5 9.5H7.5V10.5C7.5 11.0523 7.94772 11.5 8.5 11.5C9.05229 11.5 9.5 11.0523 9.5 10.5V9.5H10.5C11.0523 9.5 11.5 9.05229 11.5 8.5C11.5 7.94772 11.0523 7.5 10.5 7.5H9.5V6.5ZM12.5 15.5C12.5 14.9477 12.9477 14.5 13.5 14.5H17.5C18.0523 14.5 18.5 14.9477 18.5 15.5C18.5 16.0523 18.0523 16.5 17.5 16.5H13.5C12.9477 16.5 12.5 16.0523 12.5 15.5Z" fill="#801ED7"/>
</svg>
